X: 5
T: Her Long Dark Hair Flowing Down Her Back
R: hornpipe
M: 4/4
L: 1/8
K: Dmaj
|:de|fedf efdA|BAFB A2de|fedf e2de|fbba b2ag|fedf efdA|BAFB ABde|fedf edBA|B2BA B2:|


Tune 1263	Setting 14574

